!!!SOCIAL_FUNCTION:	songs of the heyo'ka
!!!PDT:	1918

Specific Region: Dakotas, Minnesota, Montana, Nebraska
!!!REG: Dakotas and Montana
!!!LING_GROUP: Siouan
!!!LANG: Tone
!!!OTL@ENG: Song Concerning a Dream of the Thunderbirds
!!!ONM: No. 40
**kern
*Imale
*clefF4
*k[f#c#g#d#a#]
*M3/4
*>[A,B,B]
*>norep[A,B]
*>A
*MM76
16e
=1
8.d#
16d#
8.d#
16B
16A#
8A#
16c#
=2||
*M2/4
8.B
16B
8.B
16A#
=3||
*M3/4
8A#
16A#
16A#
8B
16A#
16A#
8.A#
16G#
=4||
*M2/4
4G#
[4G#
=5
4..G#]
16B
=6||
*M3/4
8.A#
16A#
8.A#
16G#
16G#
8G#
16G#
=7||
*M2/4
8A#
16G#
16G#
8.G#
16E
=8
4D#
4D#
=9||
*M3/4
[2D#
8.D#]
16F#
=10
8.E
16E
8.E
16D#
16D#
8D#
16D#
=11||
*M2/4
8E
16D#
16D#
8.D#
16AA#
=12
4GG#
4GG#
=13
[2GG#
=14
4.GG#]
*>B
=!|:
16B
16B
=15||
*M3/4
8.B
16B
8.B
16A#
16A#
8A#
16A#
=16||
*M2/4
(16B
8A#)
16A#
8.A#
16G#
=17
4G#
(4G#
=18
4.G#)
16A#
16A#
=19||
*M3/4
8.A#
16A#
(8A#
16G#)
16G#
8G#
16.G#
32G#
=20||
*M2/4
(16A#
8G#)
16G#
8.G#
16E
=21
4D#
4D#
=22||
*M3/4
[2D#
8.D#]
16E
=23
8.E
16E
8.E
16D#
16D#
8D#
16E
=24||
*M2/4
8.D#
16D#
8.D#
16AA#
=25
4GG#
4GG#
=26
2GG#
=27
4.GG#
==:|!
*-
!!!CNT: Native American -- Sioux
!!!MRD: 1911/07//-1914///
!!!OCL: Frances Densmore
!!!YOR1: Teton Sioux Music, Bulletin 61,
!!!YOR2: Bureau of American Ethnology, Smithsonian Institution
!!!PPR: Government Printing Office
!!!PPP: Washington, D.C.
!!!PDT: 1918///
!!!ENC: Craig Stuart Sapp
!!!END: 2002/03/25/
!!!EEV: 2002/03/31/
!!!AGN: Ceremonial Song/Song of the Heyoka
!!!MPN@@SIO: Ishn'la-wicha'
!!!MPN@ENG: Lone Man
!!!TXO: Teton Sioux
!!!MLC: Standing Rock Reservation, South Dakota, United States of America
!!!ARL: 45.9/-100.7#
!!!catalog: Catalogue No. 491
!!!PPG: 165
!!!EFL: 40/245
!!!VTS: 728917173
